src/assets/img/values/illo-lightbulb.svg

<svg fill="none" height="118" viewBox="0 0 92 118" width="92" xmlns="http://www.w3.org/2000/svg"><path d="m38.506 69.921c.625-2.5 2.343-5.02 3.723-7.047.223-.326.437-.641.638-.942l1.362-3.4.658 2.63c.1699 1.5245.6632 2.9952 1.4468 4.3139s1.8395 2.455 3.0972 3.3331c1.3487.9601 2.8842 1.626 4.5069 1.9544 1.6227.3283 3.2962.3118 4.9121-.0484 5.1-1.457 8.793-3.675 10.982-6.594 5.614-7.72 6.709-18.65 2.929-29.234-2.208-7.36-2.956-8.8-9.5-14.62-.9-.774-1.738-1.5-2.521-2.186-3.7-3.234-6.153-5.37-9.159-6.572l-5.831-2.916-.029-.014-6.591 1.465c-16.769 3.645-24.097 11.567-27.042 29.235-.715 7.155-.757 8.712 2.2 15.355 1.39 2.781 2.8 6.269 2.906 6.537.007 1.643 1.012 4.022 5.851 10.243l.582.727c2.4 2.982 2.97 3.7 2.329 4.993-.2816.2954-.4944.6493-.6232 1.0366s-.1704.7982-.1218 1.2034v.038l.027.027c.618.618 1.233.272 2.163-.25.253-.142.54-.3.857-.462l.028-.014.013-.027c.5145-.8982.7703-1.9213.739-2.956l-.01-.04c-1.1701-2.1464-2.644-4.1127-4.376-5.838-.827-1.377-1.746-2.737-2.634-4.052-1.2626-1.6751-2.3336-3.4864-3.193-5.4-.366-1.1-.922-2.395-1.46-3.651s-1.092-2.549-1.458-3.649c-2.169-5.061-2.168-9.474 0-18.159 2.119-7.063 3.527-10.8 7.266-14.539 2.227-2.219 10.197-5.802 12.327-5.802 1.7502-.3294 3.4664-.8188 5.127-1.462 4.967-1.418 7.089-.811 12.315 2.175 4.454 2.97 13.864 11.72 15.274 14.539 3.836 8.441 5.756 18.319 4.376 22.508-.9208 1.2894-1.4326 2.826-1.469 4.41-1.137 4.148-4.859 8.087-9.487 10.037-3.7 1.558-7.365 1.595-10.056.1-4.962-2.836-5.848-7.747-2.873-15.931 1.439-5.036 1.439-5.036 4.286-5.036.8513.0617 1.7054-.072 2.4971-.3909s1.5001-.8146 2.0709-1.4491c.3608-.4712.6056-1.0207.7145-1.6041s.079-1.1842-.0875-1.7539c0-2.177 0-3-1.528-3.006-1.5-.742-2.265.019-3 .755-.405.406-.835.6-1.091.492-.0735-.0423-.1328-.1054-.1704-.1814-.0375-.0761-.0517-.1615-.0406-.2456 0-.82-1.482-.82-2.278-.82-.2531.0032-.5014.0687-.7232.1908-.2217.1221-.4098.297-.5478.5092-.3272.5714-.5216 1.2091-.5688 1.8659-.0473.6568.0538 1.3157.2958 1.9281.0996.2359.1032.5015.01.74-.0491.0923-.1168.1735-.1987.2385-.0818.065-.1762.1125-.2773.1395-.7469.132-1.5165.0163-2.1915-.3296s-1.2184-.903-1.5475-1.5864c-.53-1.06-2.2-2.13-2.885-1.846-.238.1-.466.384-.193 1.2.134.269.237.631-.038.829-.483.347-1.782.016-2.732-.934-.755-.756-2.22-.756-4.437-.756l-.029.005c-.212.0667-.4103.131-.595.193-1.73.557-2.38.767-2.383 2.794-.439 1.348.448 2.906 1.463 3.785.2777.322.641.5586 1.0478.6821.4069.1236.8404.1291 1.2502.0159 1.2879-.2894 2.5211-.783 3.653-1.462 1.36-.272 2.2-.34 2.7.075.822.674.822 2.7.822 7.127 0 5.148 0 5.809-2.177 10.163-.728 1.456-1.654 3.122-2.549 4.734s-1.823 3.282-2.553 4.741c-1.496 2.971-1.94 3.869-1.696 4.265.146.236.5.236 1.045.236.718 0 2.21 0 2.969-.745 1.1187-.5136 2.3419-.7584 3.572-.715 5.7942 1.0453 11.6408 1.776 17.514 2.189 2.324 0 3.553.472 3.553 1.366-.0383.3115-.1439.611-.3095.8776s-.3872.494-.6495.6664c-2.4498 1.7059-5.4534 2.4241-8.41 2.011-12.272-2.166-16-2.2-19.723-1.455-1.6451.6323-3.3427 1.1188-5.073 1.454h-.056l-.026.05c-.79 1.582 1.547 5.977 4.426 7.416l.325.109c2 .677 3.884 1.317 14.281.624h12.349c.2563.2727.4497.5984.5665.9539.1168.3556.1542.7325.1095 1.1041-.7.695-1.468 1.4-6.468 1.4-19.081 0-22.686.709-22.686 4.464-.0166.4828.074.963.2652 1.407.1913.444.4784.84.8408 1.159 1.387 1.225 4.066 1.629 7.74 1.169 15.2-1.447 15.234-1.451 15.935.653v2.132c-.743.639-5.676 1.428-8.614-.042l-.041-.009c-.9634-.056-1.9189-.209-2.852-.455-.4983-.134-1.0071-.226-1.521-.274h-.029c-2.136.712-4.435 2.183-4.435 3.73 0 2.514 1.937 3.736 5.922 3.736h4.334c.1732.194.2994.425.3688.676.0694.25.0801.514.0312.769-.1543.775-.5506 1.481-1.132 2.017h-.6c-.06-.729-.848-.729-1.546-.729-1.023 0-1.684.316-1.814.867-.125.527.285 1.112 1.035 1.486.491.322 1.067.489 1.654.481.5231-.007 1.0405-.11 1.526-.305.8427-.333 1.5978-.855 2.2075-1.525s1.0576-1.472 1.3095-2.342c.1306-.331.1765-.689.1336-1.043-.043-.353-.1734-.69-.3796-.98-.81-1.122-2.824-1.741-5.672-1.741-1.436 0-3.606 0-4.308-.7l-.024-.017c-.575-.288-.955-.477-.965-.65-.015-.234.595-.641 1.694-1.374.5282-.35 1.1478-.537 1.7815-.537s1.2534.187 1.7815.537c2.952 1.477 9.555 1.466 11.037-.017 1.464-1.463 2.177-2.837 2.064-3.976-.056-.411-.2054-.803-.4366-1.147-.2313-.344-.5382-.631-.8974-.838-1.584-2.349-5.758-2.115-13.922-.754-5.1.511-8.043.334-9-.537-.1191-.1025-.214-.2301-.2779-.3736-.064-.1435-.0954-.2993-.0921-.4564-.0037-.2247.042-.4474.1337-.6525.0918-.2051.2274-.3875.3973-.5345 1.282-1.169 4.89-1.467 11.039-.908 12.384 0 14.615 0 16.108-1.494.4724-.5146.8253-1.1271 1.0336-1.7938s.2668-1.3712.1714-2.0632c-.2124-.6422-.5647-1.2293-1.0317-1.7187-.4669-.4894-1.0367-.869-1.6683-1.1113-1.6-.8-3.867-1.446-9.516-.739-2.565 0-5.418.254-7.711.458-1.636.146-3.049.271-3.963.272-2.856.407-5.328-.081-6.782-1.341-.3371-.2654-.6128-.6006-.8082-.9826s-.3058-.8017-.3238-1.2304c.006-.1883.0551-.3728.1435-.5392.0884-.1665.2138-.3104.3665-.4208 1.657-1.384 6.975-1.548 13.231-.411 9.261 2.138 11.558 2.245 15.348.729.9963-.181 1.9287-.6169 2.7065-1.2653.7777-.6484 1.3743-1.4872 1.7315-2.4347.737-2.212.737-2.96 0-4.443l-.017-.023c-.749-.749-2.258-1.488-5.167-.756-3.6748-.222-7.3288-.7103-10.933-1.461-3.3846-.4738-6.7974-.7177-10.215-.73h-.038l-.027.027c-.3462.3666-.8027.6103-1.3.694.063-.74.791-2.159 2.167-4.223zm8.576-22.657-.009.041c-.0487.5-.1391.995-.27 1.48-.248.9417-.4014 1.9058-.458 2.878-.461 2.768-.806 2.8-.816 2.8-.128-.01-.461-.792-.461-4.238 0-4.282 0-4.282 1.367-4.282.373 0 .759 0 .888.207.117.185.036.561-.241 1.114zm3.088-5.885v-.634c-.0006-.1663.0638-.3263.1794-.4459.1156-.1195.2734-.1892.4396-.1942.1663-.0049.3279.0552.4504.1677.1226.1125.1963.2683.2056.4344-.3505.3433-.7936.5769-1.275.672zm2.13 1.765c.4142-.6099.9482-1.1291 1.5695-1.5259.6214-.3968 1.317-.6629 2.0445-.7821.615 0 1.022 0 1.1.125s-.118.535-.452 1.2c-.314.4526-.7207.8332-1.1931 1.1164-.4724.2833-.9997.4628-1.5469.5266-.2489.0738-.5107.0939-.7679.0587-.2573-.0352-.5041-.1247-.7241-.2627-.0532-.0628-.0848-.141-.0902-.223-.0054-.0821.0157-.1638.0602-.233zm-16.891 2.666c-.0941.0767-.2085.1243-.3293.1371-.1207.0127-.2426-.0099-.3507-.0651-.3949-.2228-.7246-.545-.9565-.9346s-.3579-.8331-.3655-1.2864c0-.578.119-.95.319-1 .0143-.0011.0287-.0011.043 0 .194 0 .535.267.923 1.042.3662.6524.6093 1.3666.717 2.107z" fill="#facc15"/><g fill="#9333ea"><path d="m.477013 56.173 2.999997-1.5c1.033-.62 1.786-1.012 2.285-1.272.615-.321.895-.466 1-.659.122-.212.01-.427-.193-.817-.044-.085-.09399-.18-.14699-.287l-.02601-.05h-.056c-1.25988.0077-2.50665.2565-3.673.733l-.022.011c-2.136995 1.425-2.991996 2.211-2.216996 3.761z"/><path d="m.772992 27.854c-.10303.0363-.192003.1042-.25429.1939-.062287.0898-.094725.1969-.09271.3061.051785.5843.321692 1.1277.755998 1.522l2.926 1.468c.6775.8521 1.6334 1.4383 2.7 1.656.12948.0019.25802-.0223.378-.071.321-.132.7-.522.711-1.621.1335-.1131.22866-.2648.27235-.4342.0437-.1694.0338-.3482-.02835-.5118-.09882-.1963-.25117-.3607-.43944-.4741-.18828-.1135-.4048-.1713-.62456-.1669-1.23634.0471-2.46644-.1971-3.591-.713-1.06-1.056-2.166-1.382-2.712998-1.154z"/><path d="m68.938 12.776c.8561-.1707 1.6561-.5518 2.328-1.109l.026-.025c1.058-1.588 1.427-2.936 1.107-3.2-.084-.07-.239-.1-.492.141-1.53.036-3.7 2.249-3.7 3.006 0 .611.128.963.4 1.11.1019.0536.2159.0802.331.077z"/><path d="m50.9 4.3v-3.679l-.026-.027c-.258-.258-.43-.342-.579-.282-.306.127-.306.831-.306 2.533v3.735h.091c.82 0 .82-.809.82-2.28z"/><path d="m7.71502 74.729c1.52749-.2252 3.03048-.5935 4.48898-1.1l.016-.006c.8615-.4971 1.8438-.746 2.838-.719.0382.0385.0839.0687.1344.0885.0504.0198.1045.0288.1586.0265.1153-.0113.2223-.0651.3-.151.513-.514.839-2.435.239-3.035l-.027-.027h-.038c-1.0346-.0312-2.0577.2245-2.956.739l-.024.017c-.9781.9003-2.2518 1.4118-3.58098 1.438-1.565 0-2.278.8-2.278 1.549 0 .527 0 .875.244 1.059.14375.0931.31438.1356.485.121z"/><path d="m9.01698 15.674c.09503-.0289.17868-.0867.23927-.1654s.09511-.1743.09873-.2736c0-.766-1.44-2.206-2.223-2.988-1.523-1.142-2.754-1.567-3.213-1.108-.407.407-.08 1.389.907 2.7.94179 1.0742 2.25043 1.7585 3.67 1.919.17744.0056.35432-.0229.521-.084z"/><path d="m28.85 6.945c.0673-.00049.1343-.0082.2-.023.443-.105.708-.539.708-1.162 0-1.491-1.462-3.006-2.278-3.006-.148 0-.355.072-.5.415-.1432.44293-.1796.91343-.1063 1.37312.0734.45968.2544.8955.5283 1.27188.119.30019.316.56322.5705.76201s.5574.32616.8775.36899z"/><path d="m87.958 61.244c.2648.1535.5601.2471.865.274.1054.0023.2094-.0251.3-.079.4-.25.4-1.039.4-2.472v-.038l-.023-.029c-.756-.755-1.5-.755-3.709-.755h-3.7l-.026.05c-.1076.1805-.1731.3829-.1918.5922s.0099.4201.0838.6168c.322.778 1.463 1.3 3.076 1.834z"/><path d="m91.264 39.505c.4-.165.451-1.308.451-2.4v-.038l-.027-.026c-.761-.762-1.523-.766-3.02-.018-1.1265.5202-2.36.7669-3.6.72l-.04.009c-.4085.1539-.7693.4128-1.0458.7506s-.4591.7425-.5292 1.1734c.0104.2548.0964.5007.2471.7064.1506.2057.3591.3618.5989.4486l.04.009c1.2576-.0663 2.4989-.3149 3.685-.738.8881-.429 1.8538-.6736 2.839-.719.0474.0575.1108.0998.1821.1215s.1475.0219.2189.0005z"/><path d="m80.391 23.5c1.791 0 4.959-1.749 5.483-3.854.629-1.256.763-2.062.39-2.331-.44-.317-1.482.257-2.722 1.5l-.017.024c-.5089.8838-1.2166 1.6371-2.067 2.2-.2795.2054-.5466.4272-.8.664-.5632.0849-1.0838.3498-1.484.755l-.027.026v.038c0 .544.342.886.962.963.0936.0105.1878.0155.282.015z"/><path d="m77.006 74.92-.024.017c-.1144.1125-.1993.2515-.2471.4047-.0478.1531-.057.3157-.0269.4733.147.9 1.316 1.962 3.208 2.91.7782.6046 1.7057.9869 2.684 1.106.2021.0055.4024-.0392.583-.13.1763-.1095.3181-.2667.4089-.4534.0907-.1867.1268-.3953.1041-.6016 0-1.151-1.285-2.117-2.051-2.59-1.485-.919-3.683-1.615-4.639-1.136z"/></g></svg>

<svg width="92" height="118" viewBox="0 0 92 118" fill="none" xmlns="http://www.w3.org/2000/svg">
<path d="M38.506 69.921C39.131 67.421 40.849 64.901 42.229 62.874C42.452 62.548 42.666 62.233 42.867 61.932L44.229 58.532L44.887 61.162C45.0569 62.6865 45.5502 64.1572 46.3338 65.4759C47.1174 66.7946 48.1733 67.9309 49.431 68.809C50.7797 69.7691 52.3152 70.435 53.9379 70.7634C55.5606 71.0917 57.2341 71.0752 58.85 70.715C63.95 69.258 67.643 67.04 69.832 64.121C75.446 56.401 76.541 45.471 72.761 34.887C70.553 27.527 69.805 26.087 63.261 20.267C62.361 19.493 61.523 18.767 60.74 18.081C57.04 14.847 54.587 12.711 51.581 11.509L45.75 8.593L45.721 8.579L39.13 10.044C22.361 13.689 15.033 21.611 12.088 39.279C11.373 46.434 11.331 47.991 14.288 54.634C15.678 57.415 17.088 60.903 17.194 61.171C17.201 62.814 18.206 65.193 23.045 71.414L23.627 72.141C26.027 75.123 26.597 75.841 25.956 77.134C25.6744 77.4294 25.4616 77.7833 25.3328 78.1706C25.204 78.5579 25.1624 78.9688 25.211 79.374V79.412L25.238 79.439C25.856 80.057 26.471 79.711 27.401 79.189C27.654 79.047 27.941 78.889 28.258 78.727L28.286 78.713L28.299 78.686C28.8135 77.7878 29.0693 76.7647 29.038 75.73L29.028 75.69C27.8579 73.5436 26.384 71.5773 24.652 69.852C23.825 68.475 22.906 67.115 22.018 65.8C20.7554 64.1249 19.6844 62.3136 18.825 60.4C18.459 59.3 17.903 58.005 17.365 56.749C16.827 55.493 16.273 54.2 15.907 53.1C13.738 48.039 13.739 43.626 15.907 34.941C18.026 27.878 19.434 24.141 23.173 20.402C25.4 18.183 33.37 14.6 35.5 14.6C37.2502 14.2706 38.9664 13.7812 40.627 13.138C45.594 11.72 47.716 12.327 52.942 15.313C57.396 18.283 66.806 27.033 68.216 29.852C72.052 38.293 73.972 48.171 72.592 52.36C71.6712 53.6494 71.1594 55.186 71.123 56.77C69.986 60.918 66.264 64.857 61.636 66.807C57.936 68.365 54.271 68.402 51.58 66.907C46.618 64.071 45.732 59.16 48.707 50.976C50.146 45.94 50.146 45.94 52.993 45.94C53.8443 46.0017 54.6984 45.868 55.4901 45.5491C56.2818 45.2302 56.9902 44.7345 57.561 44.1C57.9218 43.6288 58.1666 43.0793 58.2755 42.4959C58.3844 41.9125 58.3545 41.3117 58.188 40.742C58.188 38.565 58.188 37.742 56.66 37.736C55.16 36.994 54.395 37.755 53.66 38.491C53.255 38.897 52.825 39.091 52.569 38.983C52.4955 38.9407 52.4362 38.8776 52.3986 38.8016C52.3611 38.7255 52.3469 38.6401 52.358 38.556C52.358 37.736 50.876 37.736 50.08 37.736C49.8269 37.7392 49.5786 37.8047 49.3568 37.9268C49.1351 38.0489 48.947 38.2238 48.809 38.436C48.4818 39.0074 48.2874 39.6451 48.2402 40.3019C48.1929 40.9587 48.294 41.6176 48.536 42.23C48.6356 42.4659 48.6392 42.7315 48.546 42.97C48.4969 43.0623 48.4292 43.1435 48.3473 43.2085C48.2655 43.2735 48.1711 43.321 48.07 43.348C47.3231 43.48 46.5535 43.3643 45.8785 43.0184C45.2035 42.6725 44.6601 42.1154 44.331 41.432C43.801 40.372 42.131 39.302 41.446 39.586C41.208 39.686 40.98 39.97 41.253 40.786C41.387 41.055 41.49 41.417 41.215 41.615C40.732 41.962 39.433 41.631 38.483 40.681C37.728 39.925 36.263 39.925 34.046 39.925L34.017 39.93C33.805 39.9967 33.6067 40.061 33.422 40.123C31.692 40.68 31.042 40.89 31.039 42.917C30.6 44.265 31.487 45.823 32.502 46.702C32.7797 47.024 33.143 47.2606 33.5498 47.3841C33.9567 47.5077 34.3902 47.5132 34.8 47.4C36.0879 47.1106 37.3211 46.617 38.453 45.938C39.813 45.666 40.653 45.598 41.153 46.013C41.975 46.687 41.975 48.713 41.975 53.14C41.975 58.288 41.975 58.949 39.798 63.303C39.07 64.759 38.144 66.425 37.249 68.037C36.354 69.649 35.426 71.319 34.696 72.778C33.2 75.749 32.756 76.647 33 77.043C33.146 77.279 33.5 77.279 34.045 77.279C34.763 77.279 36.255 77.279 37.014 76.534C38.1327 76.0204 39.3559 75.7756 40.586 75.819C46.3802 76.8643 52.2268 77.595 58.1 78.008C60.424 78.008 61.653 78.48 61.653 79.374C61.6147 79.6855 61.5091 79.985 61.3435 80.2516C61.1779 80.5182 60.9563 80.7456 60.694 80.918C58.2442 82.6239 55.2406 83.3421 52.284 82.929C40.012 80.763 36.284 80.729 32.561 81.474C30.9159 82.1063 29.2183 82.5928 27.488 82.928H27.432L27.406 82.978C26.616 84.56 28.953 88.955 31.832 90.394L32.157 90.503C34.157 91.18 36.041 91.82 46.438 91.127H58.787C59.0433 91.3997 59.2367 91.7254 59.3535 92.0809C59.4703 92.4365 59.5077 92.8134 59.463 93.185C58.763 93.88 57.995 94.585 52.995 94.585C33.914 94.585 30.309 95.294 30.309 99.049C30.2924 99.5318 30.383 100.012 30.5742 100.456C30.7655 100.9 31.0526 101.296 31.415 101.615C32.802 102.84 35.481 103.244 39.155 102.784C54.355 101.337 54.389 101.333 55.09 103.437V105.569C54.347 106.208 49.414 106.997 46.476 105.527L46.435 105.518C45.4716 105.462 44.5161 105.309 43.583 105.063C43.0847 104.929 42.5759 104.837 42.062 104.789H42.033C39.897 105.501 37.598 106.972 37.598 108.519C37.598 111.033 39.535 112.255 43.52 112.255H47.854C48.0272 112.449 48.1534 112.68 48.2228 112.931C48.2922 113.181 48.3029 113.445 48.254 113.7C48.0997 114.475 47.7034 115.181 47.122 115.717H46.522C46.462 114.988 45.674 114.988 44.976 114.988C43.953 114.988 43.292 115.304 43.162 115.855C43.037 116.382 43.447 116.967 44.197 117.341C44.688 117.663 45.264 117.83 45.851 117.822C46.3741 117.815 46.8915 117.712 47.377 117.517C48.2197 117.184 48.9748 116.662 49.5845 115.992C50.1942 115.322 50.6421 114.52 50.894 113.65C51.0246 113.319 51.0705 112.961 51.0276 112.607C50.9846 112.254 50.8542 111.917 50.648 111.627C49.838 110.505 47.824 109.886 44.976 109.886C43.54 109.886 41.37 109.886 40.668 109.186L40.644 109.169C40.069 108.881 39.689 108.692 39.679 108.519C39.664 108.285 40.274 107.878 41.373 107.145C41.9012 106.795 42.5208 106.608 43.1545 106.608C43.7882 106.608 44.4079 106.795 44.936 107.145C47.888 108.622 54.491 108.611 55.973 107.128C57.437 105.665 58.15 104.291 58.037 103.152C57.981 102.741 57.8316 102.349 57.6004 102.005C57.3691 101.661 57.0622 101.374 56.703 101.167C55.119 98.818 50.945 99.052 42.781 100.413C37.681 100.924 34.738 100.747 33.781 99.876C33.6619 99.7735 33.567 99.6459 33.5031 99.5024C33.4391 99.3589 33.4077 99.2031 33.411 99.046C33.4073 98.8213 33.453 98.5986 33.5447 98.3935C33.6365 98.1884 33.7721 98.006 33.942 97.859C35.224 96.69 38.832 96.392 44.981 96.951C57.365 96.951 59.596 96.951 61.089 95.457C61.5614 94.9424 61.9143 94.3299 62.1226 93.6632C62.3309 92.9965 62.3894 92.292 62.294 91.6C62.0816 90.9578 61.7293 90.3707 61.2623 89.8813C60.7954 89.3919 60.2256 89.0123 59.594 88.77C57.994 87.97 55.727 87.324 50.078 88.031C47.513 88.031 44.66 88.285 42.367 88.489C40.731 88.635 39.318 88.76 38.404 88.761C35.548 89.168 33.076 88.68 31.622 87.42C31.2849 87.1546 31.0092 86.8194 30.8138 86.4374C30.6184 86.0554 30.508 85.6357 30.49 85.207C30.496 85.0187 30.5451 84.8342 30.6335 84.6678C30.7219 84.5013 30.8473 84.3574 31 84.247C32.657 82.863 37.975 82.699 44.231 83.836C53.492 85.974 55.789 86.081 59.579 84.565C60.5753 84.384 61.5077 83.9481 62.2855 83.2997C63.0632 82.6513 63.6598 81.8125 64.017 80.865C64.754 78.653 64.754 77.905 64.017 76.422L64 76.399C63.251 75.65 61.742 74.911 58.833 75.643C55.1582 75.421 51.5042 74.9327 47.9 74.182C44.5154 73.7082 41.1026 73.4643 37.685 73.452H37.647L37.62 73.479C37.2738 73.8456 36.8173 74.0893 36.32 74.173C36.383 73.433 37.111 72.014 38.487 69.95L38.506 69.921ZM47.082 47.264L47.073 47.305C47.0243 47.805 46.9339 48.3 46.803 48.785C46.555 49.7267 46.4016 50.6908 46.345 51.663C45.884 54.431 45.539 54.463 45.529 54.463C45.401 54.453 45.068 53.671 45.068 50.225C45.068 45.943 45.068 45.943 46.435 45.943C46.808 45.943 47.194 45.943 47.323 46.15C47.44 46.335 47.359 46.711 47.082 47.264V47.264ZM50.17 41.379V40.745C50.1694 40.5787 50.2338 40.4187 50.3494 40.2991C50.465 40.1796 50.6228 40.1099 50.789 40.1049C50.9553 40.1 51.1169 40.1601 51.2394 40.2726C51.362 40.3851 51.4357 40.5409 51.445 40.707C51.0945 41.0503 50.6514 41.2839 50.17 41.379V41.379ZM52.3 43.144C52.7142 42.5341 53.2482 42.0149 53.8695 41.6181C54.4909 41.2213 55.1865 40.9552 55.914 40.836C56.529 40.836 56.936 40.836 57.014 40.961C57.092 41.086 56.896 41.496 56.562 42.161C56.248 42.6136 55.8413 42.9942 55.3689 43.2774C54.8965 43.5607 54.3692 43.7402 53.822 43.804C53.5731 43.8778 53.3113 43.8979 53.0541 43.8627C52.7968 43.8275 52.55 43.738 52.33 43.6C52.2768 43.5372 52.2452 43.459 52.2398 43.377C52.2344 43.2949 52.2555 43.2132 52.3 43.144V43.144ZM35.409 45.81C35.3149 45.8867 35.2005 45.9343 35.0797 45.9471C34.959 45.9598 34.8371 45.9372 34.729 45.882C34.3341 45.6592 34.0044 45.337 33.7725 44.9474C33.5406 44.5578 33.4146 44.1143 33.407 43.661C33.407 43.083 33.526 42.711 33.726 42.661C33.7403 42.6599 33.7547 42.6599 33.769 42.661C33.963 42.661 34.304 42.928 34.692 43.703C35.0582 44.3554 35.3013 45.0696 35.409 45.81V45.81Z" fill="#FACC15"/>
<path d="M0.477013 56.173L3.47701 54.673C4.51001 54.053 5.26301 53.661 5.76201 53.401C6.37701 53.08 6.65701 52.935 6.76201 52.742C6.88401 52.53 6.77201 52.315 6.56901 51.925C6.52501 51.84 6.47502 51.745 6.42202 51.638L6.39601 51.588H6.34001C5.08013 51.5957 3.83336 51.8445 2.66701 52.321L2.64501 52.332C0.508015 53.757 -0.346986 54.543 0.428014 56.093L0.477013 56.173Z" fill="#9333EA"/>
<path d="M0.772992 27.854C0.669962 27.8903 0.580989 27.9582 0.518702 28.0479C0.456415 28.1377 0.423977 28.2448 0.425992 28.354C0.477777 28.9383 0.747684 29.4817 1.18199 29.876L4.10799 31.344C4.78549 32.1961 5.74139 32.7823 6.80799 33C6.93747 33.0019 7.06601 32.9777 7.18599 32.929C7.50699 32.797 7.88599 32.407 7.89699 31.308C8.03049 31.1949 8.12565 31.0432 8.16934 30.8738C8.21304 30.7044 8.20314 30.5256 8.14099 30.362C8.04217 30.1657 7.88982 30.0013 7.70155 29.8879C7.51327 29.7744 7.29675 29.7166 7.07699 29.721C5.84065 29.7681 4.61055 29.5239 3.48599 29.008C2.42599 27.952 1.31999 27.626 0.772992 27.854Z" fill="#9333EA"/>
<path d="M68.938 12.776C69.7941 12.6053 70.5941 12.2242 71.266 11.667L71.292 11.642C72.35 10.054 72.719 8.706 72.399 8.442C72.315 8.372 72.16 8.342 71.907 8.583C70.377 8.619 68.207 10.832 68.207 11.589C68.207 12.2 68.335 12.552 68.607 12.699C68.7089 12.7526 68.8229 12.7792 68.938 12.776V12.776Z" fill="#9333EA"/>
<path d="M50.9 4.3V0.621L50.874 0.594C50.616 0.336 50.444 0.252 50.295 0.312C49.989 0.439 49.989 1.143 49.989 2.845V6.58H50.08C50.9 6.58 50.9 5.771 50.9 4.3Z" fill="#9333EA"/>
<path d="M7.71502 74.729C9.24251 74.5038 10.7455 74.1355 12.204 73.629L12.22 73.623C13.0815 73.1259 14.0638 72.877 15.058 72.904C15.0962 72.9425 15.1419 72.9727 15.1924 72.9925C15.2428 73.0123 15.2969 73.0213 15.351 73.019C15.4663 73.0077 15.5733 72.9539 15.651 72.868C16.164 72.354 16.49 70.433 15.89 69.833L15.863 69.806H15.825C14.7904 69.7748 13.7673 70.0305 12.869 70.545L12.845 70.562C11.8669 71.4623 10.5932 71.9738 9.26402 72C7.69902 72 6.98602 72.8 6.98602 73.549C6.98602 74.076 6.98602 74.424 7.23002 74.608C7.37377 74.7011 7.5444 74.7436 7.71502 74.729V74.729Z" fill="#9333EA"/>
<path d="M9.01698 15.674C9.11201 15.6451 9.19566 15.5873 9.25625 15.5086C9.31684 15.4299 9.35136 15.3343 9.35498 15.235C9.35498 14.469 7.91498 13.029 7.13198 12.247C5.60898 11.105 4.37798 10.68 3.91898 11.139C3.51198 11.546 3.83898 12.528 4.82598 13.839C5.76777 14.9132 7.07641 15.5975 8.49598 15.758C8.67342 15.7636 8.8503 15.7351 9.01698 15.674V15.674Z" fill="#9333EA"/>
<path d="M28.85 6.945C28.9173 6.94451 28.9843 6.9368 29.05 6.922C29.493 6.817 29.758 6.383 29.758 5.76C29.758 4.269 28.296 2.754 27.48 2.754C27.332 2.754 27.125 2.826 26.98 3.169C26.8368 3.61193 26.8004 4.08243 26.8737 4.54212C26.9471 5.0018 27.1281 5.43762 27.402 5.814C27.521 6.11419 27.718 6.37722 27.9725 6.57601C28.227 6.7748 28.5299 6.90217 28.85 6.945V6.945Z" fill="#9333EA"/>
<path d="M87.958 61.244C88.2228 61.3975 88.5181 61.4911 88.823 61.518C88.9284 61.5203 89.0324 61.4929 89.123 61.439C89.523 61.189 89.523 60.4 89.523 58.967V58.929L89.5 58.9C88.744 58.145 88 58.145 85.791 58.145H82.091L82.065 58.195C81.9574 58.3755 81.8919 58.5779 81.8732 58.7872C81.8545 58.9965 81.8831 59.2073 81.957 59.404C82.279 60.182 83.42 60.704 85.033 61.238L87.958 61.244Z" fill="#9333EA"/>
<path d="M91.264 39.505C91.664 39.34 91.715 38.197 91.715 37.105V37.067L91.688 37.041C90.927 36.279 90.165 36.275 88.668 37.023C87.5415 37.5432 86.308 37.7899 85.068 37.743L85.028 37.752C84.6195 37.9059 84.2587 38.1648 83.9822 38.5026C83.7057 38.8404 83.5231 39.2451 83.453 39.676C83.4634 39.9308 83.5494 40.1767 83.7001 40.3824C83.8507 40.5881 84.0592 40.7442 84.299 40.831L84.339 40.84C85.5966 40.7737 86.8379 40.5251 88.024 40.102C88.9121 39.673 89.8778 39.4284 90.863 39.383C90.9104 39.4405 90.9738 39.4828 91.0451 39.5045C91.1164 39.5262 91.1926 39.5264 91.264 39.505V39.505Z" fill="#9333EA"/>
<path d="M80.391 23.5C82.182 23.5 85.35 21.751 85.874 19.646C86.503 18.39 86.637 17.584 86.264 17.315C85.824 16.998 84.782 17.572 83.542 18.815L83.525 18.839C83.0161 19.7228 82.3084 20.4761 81.458 21.039C81.1785 21.2444 80.9114 21.4662 80.658 21.703C80.0948 21.7879 79.5742 22.0528 79.174 22.458L79.147 22.484V22.522C79.147 23.066 79.489 23.408 80.109 23.485C80.2026 23.4955 80.2968 23.5005 80.391 23.5V23.5Z" fill="#9333EA"/>
<path d="M77.006 74.92L76.982 74.937C76.8676 75.0495 76.7827 75.1885 76.7349 75.3417C76.6871 75.4948 76.6779 75.6574 76.708 75.815C76.855 76.715 78.024 77.777 79.916 78.725C80.6942 79.3296 81.6217 79.7119 82.6 79.831C82.8021 79.8365 83.0024 79.7918 83.183 79.701C83.3593 79.5915 83.5011 79.4343 83.5919 79.2476C83.6826 79.0609 83.7187 78.8523 83.696 78.646C83.696 77.495 82.411 76.529 81.645 76.056C80.16 75.137 77.962 74.441 77.006 74.92Z" fill="#9333EA"/>
</svg>
